X:093 
T:Jim Keeffe's Polka 
B:CRE3.064 (Polca ShÃÂÃÂÃÂÃÂ©amais UÃÂÃÂÃÂÃÂ­ Chaoimh)
F:file ID: cre.3/093jim_k
R:polka
Q:120
M:2/4
L:1/8
K:D
A|dA/d/ ed|=cA A2|dA/d/ ef|g2 fe|
dA/d/ ed|=cA A2|f/g/a ge|d2 d:|
|:e|f>e fd|g2 ge|f>e fa|ge =ce|
f>e fd|g>b ge|fa ge|d2 d:|

%%%

